X: 27176
T: Miss Monaghan
R: reel
M: 4/4
K: Dmajor
D3G FAAF|G2 BG FABc|dABG FADf|gefd edAG|
FAGE DFAF|G2 BG FABc|dgfa ecdB|AFGE FDDA|
D3G FAAF|G2 BG FABc|dABG FADf|gefd edAG|
FAGE DFAF|G2 BG FABc|dg (3fgf efdB|AFGE FDDg||
faaf afdf|gefd edBc|dABG FADf|gefd edBg|
faaf afdf|gefd edBc|dfea ecdB|AFGE FDDg|
faaf afdf|(3gfe fd edBf|geBg fadf|gefd edBg|
(3fgf af bfaf|gefd edBc|dgfa ecdB|AFGE FDDA||
D3G FADF|GBDG FADA|dABG FADf|gefd edAG|
FAGE DFAF|G2 BG FABc|dgfa ecdB|AFGE FDDg||
fa a2 afdf|gefd edBf|gebg fadf|gefd edBg|
(3fgf af bfaf|gbfg edBc|dgfa ecdB|AFGE FD D2||

